white.svg

<svg width="96" height="128" viewBox="0 0 6 8" xmlns="http://www.w3.org/2000/svg"><path d="m1 0 1 1-2 2 1 1 1-1-2-2m5-1 1 1-2 2 1 1 1-1-2-2m-1 3 1 1-1 1-1-1m-1 1 1 1-1 1-1-1m5-1 1 1-1 1-1-1"/></svg>

<svg viewBox="0 0 6 8" xmlns="http://www.w3.org/2000/svg"><path d="M1 0L2 1 0 3 1 4 2 3 0 1M5 0L6 1 4 3 5 4 6 3 4 1M3 4L4 5 3 6 2 5M1 6L2 7 1 8 0 7M5 6L6 7 5 8 4 7"/></svg>
